X: 1
T: the Devil in the Kitchen
O: RSCDS 3-11
B: RSCDS 3-11
R: reel
Z: 2011 John Chambers <jc:trillian.mit.edu>
M: C|
L: 1/8
K: Amix
e \
|:"A"e>a (3AAA e>A "D"(2fed | "A"e>A (3AAA "G"g2 f<a \
| "A"e>A (3AAA e>A "D"(3fed | "G"B<G (3dcB [1 "Em"g2 f<a :|2 "Em"g2 f>g ||
[|"A"a>A (3AAA e>A (3AAA | "A"a>A (3AAA "G"g2 f>g \
| "A"a>A (3AAA e>A "D"(3fed | "G"B<G (3dcB g2 f>g |]
[|"A"a>A (3AAA e>A (3AAA | "A"a>A (3AAA "G"g2 f>g \
| "D"(3gfe "Em"g>e "D"(3faf "A"e>c | "Em"B>c d>e [1 "G"g2 f<a :|[2 "G"g3 |]
